X:1
T:St. Paul, 87.87.887
T:St. Paul, 87.87.887
T:Wittenberg, Germany, 1524
T:Public Domain Courtesy of the Cyber Hymnal™
C:Wittenberg, Germany, 1524
Z:Public Domain
Z:Courtesy of the Cyber Hymnal™
%%score ( 1 2 ) ( 3 4 )
L:1/8
Q:1/4=115
M:4/4
K:D
V:1 treble 
V:2 treble 
V:3 bass 
V:4 bass 
V:1
|: [FA]2 [EA]2 [EA]2 [FA]2 | [=C=c]2 [DB]2 A2 [B,G]2- | [B,G]4 [EA]2 [DF]2 | D2 [DF]2 [EG]2 [EA]2 | %4
 B2 [CA]6 :| [EA]2 d3 z c [GB]2 | [Gc]2 [Fd]2 B2 [CA]2- | [CA]4 [EA]2 d3 | z c [DB]2 [DF]2 A2 | %9
 [EG]2 [CF]6 | [B,D]2 [B,E]2 [EG]2 [DF]2 | [CE]2 [B,D]2 [CE]2 D2- | D6 z2 |] %13
V:2
|: x8 | x4 D=C x2 | x8 | D2 x6 | ED x6 :| x2 F2 A2 x3 | x4 ED x2 | x6 D2 x | (F2 x3 C)D x | x8 | %10
 x8 | x6 D2- | D6 x2 |] %13
V:3
|: [D,D]2 [C,E]2 [A,,C]2 [D,D]2 | ([E,G,][F,A,]) G,2 [D,F,]2 [E,G,]2- | [E,G,]4 [C,E,]2 [D,F,]2 | %3
 [F,A,]2 [B,,B,]2 B,2 [C,A,]2 | [E,^G,]2 [A,,A,]6 :| [C,A,]2 [D,A,]2 [F,D]2 [G,D]2 x | %6
 [E,G,]2 [D,A,]2 [E,^G,]2 [A,,A,]2- | [A,,A,]4 [C,A,]2 [B,,B,]2 x | %8
 [F,A,]2 [G,B,]2 [B,,B,]2 [F,A,]2 | [E,B,]2 [F,^A,]6 | F,2 [G,,G,]2 [E,,B,]2 =A,2 | %11
 [A,,A,]2 [B,,F,]2 (A,G,) [D,F,]2- | [D,F,]6 z2 |] %13
V:4
|: x8 | x2 G,2 x4 | x8 | x4 (E,D,) x2 | x8 :| x9 | x8 | x9 | x8 | x8 | (B,,^A,,) x3 (F,,G,,) x | %11
 x4 A,,2 x2 | x8 |] %13

